src/main/resources/extra-icons/ide/enumKotlin_alt.svg

<svg width="16" height="16" viewBox="0 0 16 16" fill="none" xmlns="http://www.w3.org/2000/svg">
<g id="enumKotlin">
<g id="&#226;&#140;&#152;/modifier/kotlin">
<path id="&#226;&#140;&#152;/modifier/kotlin_2" d="M16 16H9V9H16L12.4 12.4L16 16Z" fill="#B99BF8"/>
</g>
<path id="Vector" fill-rule="evenodd" clip-rule="evenodd" d="M8 15C4.134 15 1 11.866 1 8C1 4.134 4.134 1 8 1C11.866 1 15 4.134 15 8H8V15Z" fill="#F4AF3D" fill-opacity="0.6"/>
<path id="Vector_2" fill-rule="evenodd" clip-rule="evenodd" d="M8 11H6V5H10V6H7V7H9V8H7V10H8V11Z" fill="#231F20" fill-opacity="0.7"/>
</g>
</svg>

<svg width="16" height="16" viewBox="0 0 16 16" fill="none" xmlns="http://www.w3.org/2000/svg"><path d="M16 16H9V9h7l-3.6 3.4L16 16Z" fill="#B99BF8"/><path fill-rule="evenodd" clip-rule="evenodd" d="M8 15a7 7 0 1 1 7-7H8v7Z" fill="#F4AF3D" fill-opacity=".6"/><path fill-rule="evenodd" clip-rule="evenodd" d="M8 11H6V5h4v1H7v1h2v1H7v2h1v1Z" fill="#231F20" fill-opacity=".7"/></svg>
